X:6
T:Polska från Dalarna
T:Svenska Folkdansar H4 nr 6
O:Dalarna
B:Traditioner av Svenska Folkdansar Häfte 4, nr 6
R:Polska
Z:Nils L
U:w=wedge
U:t=tenuto
M:3/8
L:1/16
K:Gm
B2 | wd2(dedc) | wB2(BABd) | wf2(fgfd) | B4 d2 | 
A2A2A2 | B2BABA | G2GABG | d4 d2 | G4 ^FA | A2D2 A2 | 
B2(Bc)d2 | e2(dc)d2 | B2AG^FA | G2G,2 |]

